src/pos-icons/camcorder-off.svg

<svg height="24" viewBox="0 0 24 24" width="24" xmlns="http://www.w3.org/2000/svg"><path d="m22.1 21.5-12.7-12.7-7-7-1.3 1.2 1.6 1.6c-.5.7-.7 1.5-.7 2.4v13c0 1.1.9 2 2 2h6c1.1 0 2-.9 2-2v-6.1l1 1v1.1h1.1l6.7 6.7zm-17.1-1.5c-.5 0-1-.5-1-1s.5-1 1-1 1 .5 1 1-.5 1-1 1m2-10c-1.7 0-3-1.3-3-3 0-.3.1-.6.2-.9l3.8 3.8c-.4 0-.7.1-1 .1m.2-6-1.7-1.7c.5-.2 1-.3 1.5-.3 2.8 0 5 2.2 5 5v1.8l-2-2c-.1-1.5-1.3-2.7-2.8-2.8m12.8 5h-7v-2h7c1.1 0 2 .9 2 2v5c0 1.1-.9 2-2 2h-.8l-2-2h2.8z"/></svg>

<?xml version="1.0" encoding="UTF-8"?><!DOCTYPE svg PUBLIC "-//W3C//DTD SVG 1.1//EN" "http://www.w3.org/Graphics/SVG/1.1/DTD/svg11.dtd"><svg xmlns="http://www.w3.org/2000/svg" xmlns:xlink="http://www.w3.org/1999/xlink" version="1.1" id="mdi-camcorder-off" width="24" height="24" viewBox="0 0 24 24"><path d="M22.1 21.5L9.4 8.8L2.4 1.8L1.1 3L2.7 4.6C2.2 5.3 2 6.1 2 7V20C2 21.1 2.9 22 4 22H10C11.1 22 12 21.1 12 20V13.9L13 14.9V16H14.1L20.8 22.7L22.1 21.5M5 20C4.5 20 4 19.5 4 19S4.5 18 5 18 6 18.5 6 19 5.5 20 5 20M7 10C5.3 10 4 8.7 4 7C4 6.7 4.1 6.4 4.2 6.1L8 9.9C7.6 9.9 7.3 10 7 10M7.2 4L5.5 2.3C6 2.1 6.5 2 7 2C9.8 2 12 4.2 12 7V8.8L10 6.8C9.9 5.3 8.7 4.1 7.2 4M20 9H13V7H20C21.1 7 22 7.9 22 9V14C22 15.1 21.1 16 20 16H19.2L17.2 14H20V9Z" /></svg>
